X:1
T:Title
%%score { ( 1 3 ) | ( 2 4 ) }
L:1/8
Q:1/4=84
M:6/8
K:D
V:1 treble nm="Grand Piano"
V:3 treble 
V:2 bass 
V:4 bass 
V:1
 [FA]>[GB][FA] [DF][EG][FA] | [Fd][FA][GB] [FA]3 | [Fd]>[FA][FA] [EA][EG]F | E6 | A>BA F[EG][FA] | %5
w: Will~H.~Garey * * * * *|||||
 [Fd][FA][A=c] [GB]3 | [^GB]>[GB][GB] [Ge][Ge][Gd] |[M:5/8] [Ac]-[Ac]- [Ac]3 |[M:1/8] [GA] | %9
w: ||||
[M:3/4] [Fd]3 [FA]3 | [GB]3 d3 | c>c c[Gc] [GB][Gc] | [Fd]e dc BA | [Fd]3 [FA]3 | [GB]3 d3 | %15
w: ||||||
 c>c c[Gc] [GB][Gc] | d6 |] %17
w: ||
V:2
 [D,D]>[D,D][D,D] [D,A,][D,A,][D,D] | [D,D][D,D][D,D] [D,D]3 | %2
 [D,A,]>[D,A,][D,A,] [C,A,][C,A,][D,A,D] | [A,C]6 | [D,F,D]>[D,G,D][D,F,D] [D,A,D][D,A,][D,D] | %5
 [D,D][D,D][F,D] [G,D]3 | [E,E]>[E,E][E,E] [E,B,][E,B,][E,E] |[M:5/8] [A,E]-[A,E]- [A,E]3 | %8
[M:1/8] [A,C] |[M:3/4] [D,D]D, D,D, D,D, | z2 z[K:treble] G3 | %11
 [A,E]>[A,E][K:bass] [A,E][A,,A,] [A,,A,][A,,A,] | z[K:treble] G FA GF | [D,A,]D, D,D, D,D, | %14
 G,G, G,[K:treble]G- [G,G-][G,G] | [A,E]>[A,E][K:bass] [A,E][A,,A,] [A,,A,][A,,A,] | .A,2 z2 z2 |] %17
V:3
 x6 | x6 | x6 | x6 | x6 | x6 | x6 |[M:5/8] x5 |[M:1/8] x |[M:3/4] z D DD DD | DD .D2 B,B, | x6 | %12
 x6 | z A, A,D DD | DD .D2 B,B, | x6 | FF G .F3 |] %17
V:4
 x6 | x6 | x6 | x6 | x6 | x6 | x6 |[M:5/8] x5 |[M:1/8] x |[M:3/4] x6 | %10
 G,G, G,[K:treble][G,B,] G,G, | x2[K:bass] x4 | [D,A,]2[K:treble] z2 z2 | x6 | %14
 z2 z[K:treble] [G,B,] z2 | x2[K:bass] x4 | D,-[D,-A,] [D,-B,] [D,A,]3 |] %17

